src/icons/question-circle-border.svg

<svg viewBox="0 0 24 24" fill="none" xmlns="http://www.w3.org/2000/svg">
<path d="M12 22C17.4695 22 22 17.4792 22 12C22 6.53049 17.4695 2 11.9903 2C6.52081 2 2 6.53049 2 12C2 17.4792 6.53049 22 12 22ZM12 20.0348C7.54695 20.0348 3.97483 16.453 3.97483 12C3.97483 7.54695 7.53727 3.97483 11.9903 3.97483C16.4434 3.97483 20.0252 7.54695 20.0348 12C20.0348 16.453 16.453 20.0348 12 20.0348Z" fill="currentColor"/>
<path d="M11.699 13.9913C12.2382 13.9894 12.5802 13.6843 12.6083 13.2822C12.6081 13.243 12.6079 13.194 12.6078 13.1646C12.6355 12.6547 12.9872 12.3103 13.623 11.8963C14.5816 11.2557 15.2071 10.6947 15.2031 9.55745C15.1974 7.92021 13.7236 6.99397 11.9883 7.00003C10.3118 7.00588 9.16744 7.77459 8.86674 8.69721C8.8085 8.86408 8.77967 9.03085 8.78028 9.20732C8.78193 9.6779 9.1555 9.97072 9.54765 9.96935C9.9104 9.96809 10.1452 9.82021 10.3403 9.55482L10.4965 9.35819C10.8182 8.81785 11.2877 8.5319 11.876 8.52984C12.6701 8.52707 13.2109 8.99577 13.2133 9.66244C13.2154 10.2801 12.8047 10.5854 11.9734 11.1668C11.279 11.6496 10.771 12.1612 10.7741 13.0533L10.7745 13.1612C10.7764 13.7102 11.1107 13.9933 11.699 13.9913ZM11.6997 17.0011C12.3271 16.9989 12.8451 16.5363 12.843 15.9187C12.8408 15.301 12.3196 14.8519 11.6922 14.8541C11.0549 14.8563 10.5467 15.3188 10.5488 15.9267C10.551 16.5443 11.0722 17.0033 11.6997 17.0011Z" fill="currentColor"/>
</svg>

<svg viewBox="0 0 24 24" fill="none" xmlns="http://www.w3.org/2000/svg"><path d="M12 22c5.47 0 10-4.52 10-10 0-5.47-4.53-10-10.01-10C6.52 2 2 6.53 2 12c0 5.48 4.53 10 10 10zm0-1.965A8.007 8.007 0 0 1 3.975 12a7.99 7.99 0 0 1 8.015-8.025A8.021 8.021 0 0 1 20.035 12 8.015 8.015 0 0 1 12 20.035z" fill="currentColor"/><path d="M11.699 13.991c.54-.002.881-.307.91-.709l-.001-.117c.027-.51.38-.855 1.015-1.269.959-.64 1.584-1.201 1.58-2.339-.006-1.637-1.48-2.563-3.215-2.557-1.676.006-2.82.775-3.121 1.697a1.508 1.508 0 0 0-.087.51c.002.47.376.764.768.762.362 0 .597-.149.792-.414l.156-.197c.322-.54.792-.826 1.38-.828.794-.003 1.335.466 1.337 1.132.002.618-.408.923-1.24 1.505-.694.483-1.202.994-1.199 1.886v.108c.002.55.337.832.925.83zm0 3.01c.628-.002 1.146-.465 1.144-1.082-.002-.618-.523-1.067-1.15-1.065-.638.002-1.146.465-1.144 1.073.002.617.523 1.076 1.15 1.074z" fill="currentColor"/></svg>
